X: 167
T: Magnificat Quarti toni
N: Derived from Rue2010-Magnificat_Quarti_toni.krn
C: Pierre de la Rue
%%abc-version 2.0
%%abcx-abcm2ps-target-version 5.9.1 (29 Sep 2008)
%%abc-creator hum2abc beta
%%abcx-conversion-date 2019/02/17 08:01:16
%%abc-edited-by Jesse Rodin
%%abc-edited-by Chris Gage 01-15-2013
%%abcx-initial-encoding-date 2013/07/27/
%%humdrum-veritas 1657916762
%%humdrum-veritas-data 1348990929
%%linebreak <none>
%%barnumbers 0
L: 1/4
M: 2/1
Q: 1/2=120
%%staves [1 2 3 4]
V: 1 clef=treble
V: 2 clef=treble-8
V: 3 clef=treble-8
V: 4 clef=bass
K: C
[V:1] z8 | 
[V:2] z4A3B | 
[V:3] z8 | 
[V:4] A,8- | 
[V:1] z8 | 
[V:2] c2d2e2f2 | 
[V:3] z8 | 
[V:4] A,8 | 
[V:1] z8 | 
[V:2] g3fe2d2- | 
[V:3] z4G3A | 
[V:4] G,8 | 
[V:1] z8 | 
[V:2] dcc2B4 | 
[V:3] B2c2d2e2 | 
[V:4] G,8 | 
[V:1] z4E3F | 
[V:2] A4z4 | 
[V:3] f4e4- | 
[V:4] A,8 | 
[V:1] G2A2B2c2 | 
[V:2] z8 | 
[V:3] e2dcB2A2 | 
[V:4] E,8 | 
[V:1] d4c4- | 
[V:2] z4A3B | 
[V:3] B4z4 | 
[V:4] z8 | 
[V:1] c2BAG4- | 
[V:2] c2d2e3f | 
[V:3] z8 | 
[V:4] z8 | 
[V:1] G8- | 
[V:2] g3fe2d2 | 
[V:3] z8 | 
[V:4] z8 | 
[V:1] G4A4 | 
[V:2] c2B2A4 | 
[V:3] z4A4 | 
[V:4] z4A,,3B,, | 
[V:1] z8 | 
[V:2] z8 | 
[V:3] A4G4- | 
[V:4] C,2D,2E,3F, | 
[V:1] z8 | 
[V:2] z8 | 
[V:3] G8 | 
[V:4] G,3F,E,2D,2 | 
[V:1] E3FG2A2 | 
[V:2] z2e4dc | 
[V:3] A4E4 | 
[V:4] C,2A,,2E,4 | 
[V:1] B2c2d4 | 
[V:2] c2A4^G2 | 
[V:3] z8 | 
[V:4] D,2C,2B,,4 | 
[V:1] c4B3c | 
[V:2] A4E4 | 
[V:3] z4G3A | 
[V:4] A,,4z4 | 
[V:1] d2c2A4 | 
[V:2] z8 | 
[V:3] B2c2d2e2 | 
[V:4] z8 | 
[V:1] A2d2c2B2- | 
[V:2] A3Bc2d2 | 
[V:3] f4e4- | 
[V:4] z4A,,3B,, | 
[V:1] B2A4^G2 | 
[V:2] e2f2e4- | 
[V:3] e2dcB4 | 
[V:4] C,2D,2E,4 | 
[V:1] A8 | 
[V:2] e4A3B | 
[V:3] A8- | 
[V:4] A,,4z4 | 
[V:1] A8 | 
[V:2] c2d2e2f2 | 
[V:3] A8 | 
[V:4] A,,3B,,C,2D,2 | 
[V:1] G8- | 
[V:2] g3fd4- | 
[V:3] z8 | 
[V:4] E,2F,2G,4- | 
[V:1] G8 | 
[V:2] d4e4 | 
[V:3] z8 | 
[V:4] G,2F,2E,2D,2 | 
[V:1] A8- | 
[V:2] z4A3B | 
[V:3] A8 | 
[V:4] C,2B,,2A,,4- | 
[V:1] A8 | 
[V:2] c2d2e2f2 | 
[V:3] A4A4 | 
[V:4] A,,4A,,4 | 
[V:1] B8- | 
[V:2] g3fede2- | 
[V:3] G2E2G3A | 
[V:4] E,8 | 
[V:1] B8 | 
[V:2] e2dcB4 | 
[V:3] B2c2d2e2 | 
[V:4] z8 | 
[V:1] A8- | 
[V:2] z4A3B | 
[V:3] f4e4- | 
[V:4] A,4A,4 | 
[V:1] A8 | 
[V:2] c2d2e2f2 | 
[V:3] e2d2c4 | 
[V:4] A,8 | 
[V:1] G3ABcd2- | 
[V:2] g2e4d2- | 
[V:3] B8 | 
[V:4] E,4G,4 | 
[V:1] d2c4B2- | 
[V:2] def2g2e2 | 
[V:3] z2A2B2c2 | 
[V:4] F,4E,4 | 
[V:1] B2A4^G2 | 
[V:2] f2f2e4 | 
[V:3] d4B4 | 
[V:4] D,4E,4 | 
[V:1] A6GF | 
[V:2] z2f4ed | 
[V:3] A8- | 
[V:4] A,,8- | 
[V:1] E2A,2z2c2- | 
[V:2] c3de4 | 
[V:3] A8 | 
[V:4] A,,8 | 
[V:1] cBAGF4 | 
[V:2] A4z4 | 
[V:3] A4A4 | 
[V:4] z8 | 
[V:1] E4z2A2- | 
[V:2] z8 | 
[V:3] A8 | 
[V:4] z4z2F,2- | 
[V:1] AGFED4 | 
[V:2] z4G4 | 
[V:3] z8 | 
[V:4] F,E,D,C,B,,4 | 
[V:1] C4z2c2- | 
[V:2] A4e4- | 
[V:3] z8 | 
[V:4] A,,8 | 
[V:1] cBG2A2B2 | 
[V:2] e4d4 | 
[V:3] z8 | 
[V:4] z8 | 
[V:1] E2A3GE2 | 
[V:2] c8 | 
[V:3] z8 | 
[V:4] z2F,3E,C,2 | 
[V:1] F2G2C4 | 
[V:2] B4A2c2- | 
[V:3] z8 | 
[V:4] D,2E,2A,,2A,2- | 
[V:1] z8 | 
[V:2] cBG2A2B2 | 
[V:3] z8 | 
[V:4] A,G,E,2F,2G,2 | 
[V:1] z8 | 
[V:2] E2c2d2f2- | 
[V:3] A8- | 
[V:4] C,2F,3E,D,C, | 
[V:1] z8 | 
[V:2] fedcd4 | 
[V:3] A4^G4 | 
[V:4] D,C,B,,A,,B,,4 | 
[V:1] z8 | 
[V:2] c3de2f2- | 
[V:3] A4c3B | 
[V:4] A,,8 | 
[V:1] z8 | 
[V:2] fee4d2 | 
[V:3] A2G2F4 | 
[V:4] z4D,4 | 
[V:1] z8 | 
[V:2] e8 | 
[V:3] E8 | 
[V:4] C,4C,4 | 
[V:1] A8- | 
[V:2] z8 | 
[V:3] z4A3G | 
[V:4] D,4F,3E, | 
[V:1] A4G4 | 
[V:2] z8 | 
[V:3] F2E2D4 | 
[V:4] D,2C,2B,,4 | 
[V:1] A4c3B | 
[V:2] e8 | 
[V:3] E4z2A2 | 
[V:4] A,,8 | 
[V:1] A2G2F4 | 
[V:2] e4d4 | 
[V:3] A4B4 | 
[V:4] z8 | 
[V:1] E8- | 
[V:2] e4g3f | 
[V:3] c8 | 
[V:4] z8 | 
[V:1] E8- | 
[V:2] e2d2c4 | 
[V:3] G8 | 
[V:4] E,8 | 
[V:1] E8 ||  
[V:2] B8 ||  
[V:3] E8 ||  
[V:4] E,8 ||  
[V:1]  [K:C] [K:clef=treble][M:2/1]A8- | 
[V:2]  [K:C] [K:clef=treble-8][M:2/1]A4A2c2- | 
[V:3]  [K:C] [K:clef=treble-8][M:2/1]z8 | 
[V:4]  [K:C] [K:clef=bass][M:2/1]z8 | 
[V:1] A8- | 
[V:2] c2BAc3d | 
[V:3] A4A2c2- | 
[V:4] z8 | 
[V:1] A8- | 
[V:2] e4A4 | 
[V:3] c2BAc3d | 
[V:4] A,,4A,,2C,2- | 
[V:1] A8 | 
[V:2] z2c4BA | 
[V:3] e4E4 | 
[V:4] C,2B,,A,,C,3D, | 
[V:1] G8- | 
[V:2] c3de4 | 
[V:3] z2c4BA | 
[V:4] E,8 | 
[V:1] G8 | 
[V:2] E4z4 | 
[V:3] c3de4 | 
[V:4] E,8 | 
[V:1] A8 | 
[V:2] e4f4- | 
[V:3] A8- | 
[V:4] z4D,4 | 
[V:1] A8- | 
[V:2] f2edc3d | 
[V:3] A8 | 
[V:4] D,2F,4E,D, | 
[V:1] A8 | 
[V:2] A4z2f2- | 
[V:3] z8 | 
[V:4] F,3G,A,4 | 
[V:1] A8- | 
[V:2] f2edc3d | 
[V:3] z2A4GF | 
[V:4] D,4z4 | 
[V:1] A8 | 
[V:2] A4z4 | 
[V:3] A3Bc4 | 
[V:4] z4z2F,2- | 
[V:1] A8 | 
[V:2] z2f4ed | 
[V:3] F4z2c2- | 
[V:4] F,2E,D,F,3G, | 
[V:1] A8- | 
[V:2] c3de4 | 
[V:3] c2BAc3d | 
[V:4] A,4A,,4 | 
[V:1] A8 | 
[V:2] A3Bc4 | 
[V:3] e4A4 | 
[V:4] z4z2A,2- | 
[V:1] A8 | 
[V:2] F8 | 
[V:3] z8 | 
[V:4] A,2G,F,A,3B, | 
[V:1] A8- | 
[V:2] z4f4 | 
[V:3] A3Bc4 | 
[V:4] C4F,3G, | 
[V:1] A8- | 
[V:2] e2c2d2f2 | 
[V:3] c4A3B | 
[V:4] A,4D,4 | 
[V:1] A8 | 
[V:2] e2c2d2f2 | 
[V:3] c4F4 | 
[V:4] A,4D,4 | 
[V:1] z8 | 
[V:2] e2c2d2f2- | 
[V:3] z2A2B2c2- | 
[V:4] A,4D,2A,2- | 
[V:1] z8 | 
[V:2] fee4d2 | 
[V:3] cBAGA4 | 
[V:4] A,G,F,E,F,4 | 
[V:1] G6A2 | 
[V:2] e8- | 
[V:3] B8 | 
[V:4] E,8- | 
[V:1] B2E2B4- | 
[V:2] e8- | 
[V:3] z4G4- | 
[V:4] E,8- | 
[V:1] B2G3AB2 | 
[V:2] e8 | 
[V:3] G8 | 
[V:4] E,8 | 
[V:1] c6A2- | 
[V:2] c3de2f2- | 
[V:3] A8- | 
[V:4] z8 | 
[V:1] ABc2d4- | 
[V:2] f2e2d3e | 
[V:3] A4B4- | 
[V:4] z8 | 
[V:1] d2B3cd2 | 
[V:2] f2g3fd2 | 
[V:3] B8 | 
[V:4] z8 | 
[V:1] G8- | 
[V:2] e8 | 
[V:3] c2B4e2- | 
[V:4] E,6C,2- | 
[V:1] G4A4- | 
[V:2] z4z2c2- | 
[V:3] edcBA3B | 
[V:4] C,D,E,2F,4- | 
[V:1] A8 | 
[V:2] c2f3edc | 
[V:3] c2d3cBA | 
[V:4] F,2D,3E,F,2 | 
[V:1] B8- | 
[V:2] B3cd2e2 | 
[V:3] G4B4- | 
[V:4] G,6E,2- | 
[V:1] B4A4- | 
[V:2] E2e6 | 
[V:3] B4c4 | 
[V:4] E,F,G,2A,4 | 
[V:1] A8 | 
[V:2] f8 | 
[V:3] d8 | 
[V:4] D,8 | 
[V:1] G8- | 
[V:2] e8 | 
[V:3] B8 | 
[V:4] E,8 | 
[V:1] G8- | 
[V:2] z2g2e2g2- | 
[V:3] z2G2G2G2 | 
[V:4] z4z2E,2 | 
[V:1] G8- | 
[V:2] gfede2d2 | 
[V:3] B4z2G2 | 
[V:4] E,2E,2G,4 | 
[V:1] G8- | 
[V:2] e2g2e2g2- | 
[V:3] G2G2B4 | 
[V:4] z2E,2E,2E,2 | 
[V:1] G8- | 
[V:2] gfede4- | 
[V:3] z2E2E2E2 | 
[V:4] G,4z2C,2 | 
[V:1] G8 | 
[V:2] e4e4 | 
[V:3] e2dcB4 | 
[V:4] C,2C,2E,4 | 
[V:1] A8 | 
[V:2] z2e2e2d2 | 
[V:3] A8 | 
[V:4] z2A,,2C,2D,2 | 
[V:1] z8 | 
[V:2] e2g3fe2- | 
[V:3] z8 | 
[V:4] A,,2E,2G,2A,2 | 
[V:1] z8 | 
[V:2] e2dcB4 | 
[V:3] z2A2G2G2 | 
[V:4] E,2A,,2E,4 | 
[V:1] z8 | 
[V:2] z2e4d2 | 
[V:3] A2c4G2- | 
[V:4] z8 | 
[V:1] z8 | 
[V:2] B2e4d2 | 
[V:3] G2E2F4 | 
[V:4] z4z2D,2 | 
[V:1] z8 | 
[V:2] e4A4- | 
[V:3] E4z4 | 
[V:4] C,2C,2D,2F,2- | 
[V:1] z8 | 
[V:2] A4G4 | 
[V:3] z8 | 
[V:4] F,E,D,C,B,,4 | 
[V:1] z2A2A2G2 | 
[V:2] A2c4B2 | 
[V:3] z8 | 
[V:4] A,,4z4 | 
[V:1] A2c3BAG | 
[V:2] A3Bcde2- | 
[V:3] z8 | 
[V:4] z8 | 
[V:1] F4E2c2- | 
[V:2] e2d2e4- | 
[V:3] z8 | 
[V:4] z4z2A,2 | 
[V:1] c2B2c2G2 | 
[V:2] e8- | 
[V:3] z8 | 
[V:4] A,2G,2A,2C2- | 
[V:1] c3BA4 | 
[V:2] e4d4 | 
[V:3] z4D4 | 
[V:4] CB,A,G,F,4 | 
[V:1] G8- | 
[V:2] e8- | 
[V:3] G3AB2c2- | 
[V:4] E,8- | 
[V:1] G8- | 
[V:2] e8- | 
[V:3] c2B2c4- | 
[V:4] E,8- | 
[V:1] G8 ||  
[V:2] e8 ||  
[V:3] c4B4 ||  
[V:4] E,8 ||  
[V:1]  [K:C] [K:clef=treble][M:2/1]z8 | 
[V:2]  [K:C] [K:clef=treble-8][M:2/1]z8 | 
[V:3]  [K:C] [K:clef=treble-8][M:2/1]A4A4 | 
[V:4]  [K:C] [K:clef=bass][M:2/1]z8 | 
[V:1] z8 | 
[V:2] e4e4 | 
[V:3] G4A2c2- | 
[V:4] z8 | 
[V:1] z8 | 
[V:2] d4e2g2- | 
[V:3] c2B2A2G2 | 
[V:4] z8 | 
[V:1] z8 | 
[V:2] g2f2e2d2 | 
[V:3] A4G4 | 
[V:4] z8 | 
[V:1] A8 | 
[V:2] e2A2e3d/c/ | 
[V:3] z2c4BA | 
[V:4] z8 | 
[V:1] G4A2c2- | 
[V:2] e2d2c3d | 
[V:3] c2B2A3B | 
[V:4] z8 | 
[V:1] c2B2A2G2 | 
[V:2] e2f3dg2- | 
[V:3] c2d4B2 | 
[V:4] z8 | 
[V:1] A4G4 | 
[V:2] g2f2g2e2- | 
[V:3] c2d2e4 | 
[V:4] z8 | 
[V:1] z4z2c2- | 
[V:2] e2f3ee2- | 
[V:3] A4G2E2 | 
[V:4] z8 | 
[V:1] c2BAc2B2 | 
[V:2] e2d2e4 | 
[V:3] F4E4 | 
[V:4] z8 | 
[V:1] E2B2c2A2 | 
[V:2] z2e4f2 | 
[V:3] z8 | 
[V:4] z8 | 
[V:1] B2G2A4 | 
[V:2] d2e2c2d2 | 
[V:3] z2E2F2D2 | 
[V:4] z8 | 
[V:1] G3A/B/c2A2 | 
[V:2] B4A2f2 | 
[V:3] E2G2F4 | 
[V:4] z8 | 
[V:1] B2G2A4 | 
[V:2] d2e2c2d2 | 
[V:3] z2E2F2D2 | 
[V:4] z8 | 
[V:1] G4z4 | 
[V:2] B2e4d2 | 
[V:3] E2G2F4 | 
[V:4] z8 | 
[V:1] G4G2G2 | 
[V:2] e4B4 | 
[V:3] E4z4 | 
[V:4] z8 | 
[V:1] G4z2G2- | 
[V:2] B2B2c2B2 | 
[V:3] E4E2E2 | 
[V:4] z8 | 
[V:1] G4A2B2 | 
[V:2] e3dc2B2 | 
[V:3] E4z2E2- | 
[V:4] z8 | 
[V:1] G4z2G2- | 
[V:2] e3dc2B2 | 
[V:3] E4F2G2 | 
[V:4] z8 | 
[V:1] G4A2B2- | 
[V:2] z2B2c2B2 | 
[V:3] E4z2E2- | 
[V:4] z8 | 
[V:1] B2G2A2B2 | 
[V:2] e3dc2B2 | 
[V:3] E4F2G2- | 
[V:4] z8 | 
[V:1] G4z2G2- | 
[V:2] e3dc2B2 | 
[V:3] G2E2F2G2 | 
[V:4] z8 | 
[V:1] GAB3cd2 | 
[V:2] g3fe2d2 | 
[V:3] E4z4 | 
[V:4] z8 | 
[V:1] G4c2B2- | 
[V:2] c2B2A2e2- | 
[V:3] z2E2F2G2 | 
[V:4] z8 | 
[V:1] BAA4^G2 | 
[V:2] edcB/A/B4 | 
[V:3] A4E4 | 
[V:4] z8 | 
[V:1] A8 | 
[V:2] A4z4 | 
[V:3] z2A3Bcd | 
[V:4] z8 | 
[V:1] z8 | 
[V:2] z2c3def | 
[V:3] e3dcBA2 | 
[V:4] z8 | 
[V:1] z8 | 
[V:2] g3fe2d2- | 
[V:3] G2c4B2- | 
[V:4] z8 | 
[V:1] z8 | 
[V:2] d2c2B4 | 
[V:3] B2A4^G2 | 
[V:4] z8 | 
[V:1] A8 | 
[V:2] A2f2e2c2 | 
[V:3] A8 | 
[V:4] z8 | 
[V:1] A8 | 
[V:2] d4A4 | 
[V:3] z2f2e2c2 | 
[V:4] z8 | 
[V:1] A8 | 
[V:2] z2f2e2c2 | 
[V:3] d4A4 | 
[V:4] z8 | 
[V:1] z8 | 
[V:2] d4A2d2- | 
[V:3] z2G2F2D2 | 
[V:4] z8 | 
[V:1] z8 | 
[V:2] d2^c2d4 | 
[V:3] E4D4 | 
[V:4] z8 | 
[V:1] A8- | 
[V:2] z2c2d2e2 | 
[V:3] A,4z2C2 | 
[V:4] z8 | 
[V:1] A8 | 
[V:2] f3e/d/c2d2 | 
[V:3] D2E2F2ED | 
[V:4] z8 | 
[V:1] A8- | 
[V:2] e2A2a3g | 
[V:3] C2D2A,2A2- | 
[V:4] z8 | 
[V:1] A8 | 
[V:2] f2e4d2 | 
[V:3] A2G2F4 | 
[V:4] z8 | 
[V:1] G4z2G2 | 
[V:2] e8 | 
[V:3] E4z2E2 | 
[V:4] z8 | 
[V:1] A2B2c2BA | 
[V:2] z4e4- | 
[V:3] F2G2A4 | 
[V:4] z8 | 
[V:1] G4z2G2 | 
[V:2] e2dcB2e2- | 
[V:3] E4z2E2 | 
[V:4] z8 | 
[V:1] A2B2c2d2 | 
[V:2] edB2A2B2 | 
[V:3] F2G2A3G/F/ | 
[V:4] z8 | 
[V:1] G3AB2c2- | 
[V:2] c2B4e2- | 
[V:3] E4z2E2 | 
[V:4] z8 | 
[V:1] cBB4A2 | 
[V:2] e2d2c4 | 
[V:3] F2G2A4 | 
[V:4] z8 | 
[V:1] B2G2A2B2 | 
[V:2] B2e4d2 | 
[V:3] E2c4B2 | 
[V:4] z8 | 
[V:1] E8 | 
[V:2] c2B2c4 | 
[V:3] A2G2A4 | 
[V:4] z8 | 
[V:1] z2c4B2 | 
[V:2] B2z2z4 | 
[V:3] E2A4G2 | 
[V:4] z8 | 
[V:1] A2G2A4 | 
[V:2] z2g4f2 | 
[V:3] F2E2D2D2 | 
[V:4] z8 | 
[V:1] G4z4 | 
[V:2] e2d2e2A2 | 
[V:3] z2G4F2 | 
[V:4] z8 | 
[V:1] z2A4G2 | 
[V:2] c2d2B4 | 
[V:3] E2D2E2E2 | 
[V:4] z8 | 
[V:1] F2E2F4 | 
[V:2] z2e4d2 | 
[V:3] z2A4B2 | 
[V:4] z8 | 
[V:1] E8- | 
[V:2] c2B2c4 | 
[V:3] c2G2A4 | 
[V:4] z8 | 
[V:1] E8 ||  
[V:2] B8 ||  
[V:3] E8 ||  
[V:4] z8 ||  
[V:1]  [K:C] [K:clef=treble][M:2/1]z8 | 
[V:2]  [K:C] [K:clef=treble-8][M:2/1]z8 | 
[V:3]  [K:C] [K:clef=treble-8][M:2/1]A8- | 
[V:4]  [K:C] [K:clef=bass][M:2/1]D,4D,2F,2- | 
[V:1] z4A4 | 
[V:2] z8 | 
[V:3] A8- | 
[V:4] F,E,D,4C,B,, | 
[V:1] A2c3BA2- | 
[V:2] z8 | 
[V:3] A8- | 
[V:4] A,,8 | 
[V:1] A2GFE4 | 
[V:2] z4e4 | 
[V:3] A8 | 
[V:4] z2A,,2A,,2A,,2 | 
[V:1] z2E2E2E2 | 
[V:2] e2g3fe2- | 
[V:3] G8- | 
[V:4] C,3D,E,4 | 
[V:1] G3AB4 | 
[V:2] e2dcB4 | 
[V:3] G8- | 
[V:4] z2E,2E,2E,2 | 
[V:1] z2G2G2G2 | 
[V:2] z2B2B2B2 | 
[V:3] G8- | 
[V:4] G,3A,B,2E,2- | 
[V:1] B3cd4 | 
[V:2] B4B4 | 
[V:3] G8 | 
[V:4] E,2D,C,B,,4 | 
[V:1] c4z2c2 | 
[V:2] z2c2A2c2- | 
[V:3] A8- | 
[V:4] A,,8 | 
[V:1] A2c3de2 | 
[V:2] cde2A4 | 
[V:3] A8 | 
[V:4] z4z2A,2 | 
[V:1] A4z4 | 
[V:2] z4z2e2 | 
[V:3] A4A4 | 
[V:4] F,2A,3B,C2 | 
[V:1] z2A2F2A2- | 
[V:2] f2f4ed | 
[V:3] A8- | 
[V:4] F,8 | 
[V:1] ABc2F4 | 
[V:2] c4z2f2 | 
[V:3] A8- | 
[V:4] z2F,2D,2F,2- | 
[V:1] z2A3GF2- | 
[V:2] d2f3ga2 | 
[V:3] A8 | 
[V:4] F,G,A,2D,4- | 
[V:1] F2EDC2D2 | 
[V:2] d4e2f2 | 
[V:3] z8 | 
[V:4] D,4A,,4- | 
[V:1] E4z2c2- | 
[V:2] c3de4 | 
[V:3] z8 | 
[V:4] A,,8 | 
[V:1] cBA4GF | 
[V:2] c3de2f2 | 
[V:3] A8 | 
[V:4] A,,8 | 
[V:1] E3FG4 | 
[V:2] g4e4- | 
[V:3] G8 | 
[V:4] z4E,4- | 
[V:1] G8- | 
[V:2] e8- | 
[V:3] G8 | 
[V:4] E,8 | 
[V:1] G8- | 
[V:2] e8- | 
[V:3] B8 | 
[V:4] E,8- | 
[V:1] G8 | 
[V:2] e4e4 | 
[V:3] B8 | 
[V:4] E,8 | 
[V:1] A8 | 
[V:2] c4d4 | 
[V:3] A8 | 
[V:4] F,8 | 
[V:1] G2B3cd2- | 
[V:2] e4d4 | 
[V:3] B8- | 
[V:4] E,4G,4 | 
[V:1] dcBA^G3^F | 
[V:2] f4e4 | 
[V:3] B8 | 
[V:4] D,4E,4 | 
[V:1] A8 | 
[V:2] z4f4 | 
[V:3] A4z4 | 
[V:4] A,,4D,4 | 
[V:1] z8 | 
[V:2] f2f2e4 | 
[V:3] A4A2A2 | 
[V:4] D,2D,2C,4 | 
[V:1] z8 | 
[V:2] z2e4dc | 
[V:3] G4z2G2- | 
[V:4] z2C,4D,2 | 
[V:1] z8 | 
[V:2] B2c2G4 | 
[V:3] G2A2B2E2 | 
[V:4] E,2A,,2E,4- | 
[V:1] z2G4A2 | 
[V:2] e8 | 
[V:3] B4c4 | 
[V:4] E,4E,4 | 
[V:1] B2E2B4 | 
[V:2] e4e4 | 
[V:3] B8 | 
[V:4] E,8 | 
[V:1] c4B2E2- | 
[V:2] c3B/A/G2A2 | 
[V:3] z8 | 
[V:4] A,,4z2C,2- | 
[V:1] E2F2G2A2 | 
[V:2] E2B4c2- | 
[V:3] z8 | 
[V:4] C,2D,2E,2A,,2 | 
[V:1] G2E4D2 | 
[V:2] c2B3GA2 | 
[V:3] z8 | 
[V:4] E,4F,4 | 
[V:1] E4z2B2- | 
[V:2] B6G2 | 
[V:3] z4B4- | 
[V:4] E,4z2G,2- | 
[V:1] B2G4A2- | 
[V:2] G4z4 | 
[V:3] B4c4 | 
[V:4] G,2E,2C,2F,2 | 
[V:1] A2B4G2- | 
[V:2] z4z2g2 | 
[V:3] d4B4 | 
[V:4] D,2G,4E,2 | 
[V:1] G2A4B2- | 
[V:2] e2f3edc | 
[V:3] c4d4 | 
[V:4] C,2F,2D,2G,2- | 
[V:1] B2c4BA | 
[V:2] d2e4d2 | 
[V:3] G4A4 | 
[V:4] G,2E,2F,4 | 
[V:1] G8 | 
[V:2] e8 | 
[V:3] B4c4 | 
[V:4] E,8 | 
[V:1] z8 | 
[V:2] z8 | 
[V:3] B2A2B4 | 
[V:4] z2A,2B,2G,2 | 
[V:1] z2A2B4 | 
[V:2] z8 | 
[V:3] z2A2A2G2 | 
[V:4] A,2F,2E,4 | 
[V:1] c4z4 | 
[V:2] z2e4d2 | 
[V:3] A4G4 | 
[V:4] z8 | 
[V:1] z2c2d2B2 | 
[V:2] e2c2B2e2- | 
[V:3] E2A2B2G2 | 
[V:4] z8 | 
[V:1] c2A2G4 | 
[V:2] e2d2e4 | 
[V:3] A2F2E4 | 
[V:4] z8 | 
[V:1] z2F2G2E2 | 
[V:2] z2A2G2A2 | 
[V:3] z8 | 
[V:4] z2D,2E,2C,2 | 
[V:1] F2D2C2F2- | 
[V:2] F2G2A4 | 
[V:3] z4z2A2 | 
[V:4] D,2B,,2A,,2D,2- | 
[V:1] FEE4D2 | 
[V:2] z4z2d2 | 
[V:3] B2G2A2F2 | 
[V:4] D,2C,2A,,2B,,2 | 
[V:1] E8- | 
[V:2] c3B/A/G2A2 | 
[V:3] E8- | 
[V:4] C,3D,E,2F,2 | 
[V:1] E8- | 
[V:2] B4c4 | 
[V:3] E8- | 
[V:4] G,4C,4 | 
[V:1] E8 ||  
[V:2] B8 ||  
[V:3] E8 ||  
[V:4] E,8 ||  
[V:1]  [K:C] [K:clef=treble][M:2/1]z8 | 
[V:2]  [K:C] [K:clef=treble-8][M:2/1]z8 | 
[V:3]  [K:C] [K:clef=treble-8][M:2/1]A4G2A2- | 
[V:4]  [K:C] [K:clef=bass][M:2/1]z8 | 
[V:1] z8 | 
[V:2] z8 | 
[V:3] A2GFE2D2 | 
[V:4] D,4C,2D,2- | 
[V:1] z8 | 
[V:2] z8 | 
[V:3] F2G2A4 | 
[V:4] D,2C,B,,A,,4 | 
[V:1] z8 | 
[V:2] e8- | 
[V:3] E2c2BAc2- | 
[V:4] z2A,2G,2A,2- | 
[V:1] z8 | 
[V:2] e8- | 
[V:3] c2BAG2A2 | 
[V:4] A,2G,F,E,2A,,2 | 
[V:1] z8 | 
[V:2] e8- | 
[V:3] z2A2G2A2- | 
[V:4] C4B,2C2- | 
[V:1] z8 | 
[V:2] e8 | 
[V:3] A2GFE4 | 
[V:4] C2B,A,G,2C,2 | 
[V:1] z8 | 
[V:2] d8- | 
[V:3] B3cd4 | 
[V:4] G,4z2G,2- | 
[V:1] z8 | 
[V:2] d8- | 
[V:3] B4z2B2- | 
[V:4] G,A,B,2G,4 | 
[V:1] z8 | 
[V:2] d8 | 
[V:3] Bcd2B2G2 | 
[V:4] z2G,3A,B,2 | 
[V:1] z8 | 
[V:2] e8 | 
[V:3] z2G3AB2 | 
[V:4] G,2E,2z2E,2- | 
[V:1] z8 | 
[V:2] e8- | 
[V:3] G4z2G2- | 
[V:4] E,F,G,2E,2C,2 | 
[V:1] z8 | 
[V:2] e8 | 
[V:3] GAB2G2E2 | 
[V:4] z2E,3F,G,2 | 
[V:1] z8 | 
[V:2] e4e4 | 
[V:3] z2E3FG2 | 
[V:4] C,4z2C,2- | 
[V:1] z8 | 
[V:2] e8- | 
[V:3] E4z2E2- | 
[V:4] C,D,E,2C,2A,,2 | 
[V:1] z8 | 
[V:2] e8 | 
[V:3] EFG2ECc2- | 
[V:4] z2C,3D,E,2 | 
[V:1] z8 | 
[V:2] z8 | 
[V:3] cBA4^G2 | 
[V:4] A,,2C,2B,,4 | 
[V:1] z8 | 
[V:2] e8- | 
[V:3] A4z4 | 
[V:4] A,,8 | 
[V:1] z8 | 
[V:2] e8- | 
[V:3] A8 | 
[V:4] z4A,,4 | 
[V:1] z8 | 
[V:2] e8 | 
[V:3] G8 | 
[V:4] E,8 | 
[V:1] z8 | 
[V:2] d8 | 
[V:3] B8- | 
[V:4] G,8- | 
[V:1] z8 | 
[V:2] d8 | 
[V:3] B8 | 
[V:4] G,8 | 
[V:1] z8 | 
[V:2] f8 | 
[V:3] A6Bc | 
[V:4] D,8- | 
[V:1] z8 | 
[V:2] f8 | 
[V:3] d4d4 | 
[V:4] D,8 | 
[V:1] z8 | 
[V:2] e4f4- | 
[V:3] B4z2d2 | 
[V:4] E,4D,4 | 
[V:1] z8 | 
[V:2] f2e2e4- | 
[V:3] c3BB4- | 
[V:4] E,4G,4 | 
[V:1] z8 | 
[V:2] e4d4 | 
[V:3] B4A4 | 
[V:4] F,8 | 
[V:1] z8 | 
[V:2] e8- | 
[V:3] B2ABc2B2- | 
[V:4] E,8- | 
[V:1] z8 | 
[V:2] e8 | 
[V:3] BAA4^G2 | 
[V:4] E,8 | 
[V:1] z8 | 
[V:2] z8 | 
[V:3] A8 | 
[V:4] A,,3B,,C,D,E,2 | 
[V:1] z8 | 
[V:2] A3Bcde2 | 
[V:3] A4A4 | 
[V:4] A,,4z4 | 
[V:1] z8 | 
[V:2] f2edc2dc | 
[V:3] A8 | 
[V:4] z8 | 
[V:1] z8 | 
[V:2] d8- | 
[V:3] A4A2B2- | 
[V:4] D,4D,2G,2- | 
[V:1] z8 | 
[V:2] d8 | 
[V:3] B2A2B4 | 
[V:4] G,2F,2G,4 | 
[V:1] z8 | 
[V:2] e8- | 
[V:3] G3AB2c2- | 
[V:4] E,4z2A,2- | 
[V:1] z8 | 
[V:2] e8 | 
[V:3] cAd4^c2 | 
[V:4] A,2G,2A,4 | 
[V:1] z8 | 
[V:2] f8 | 
[V:3] d8 | 
[V:4] D,8 | 
[V:1] z8 | 
[V:2] e4z4 | 
[V:3] z8 | 
[V:4] A,4A,4 | 
[V:1] z8 | 
[V:2] e3ee2e2 | 
[V:3] z8 | 
[V:4] G,4A,4 | 
[V:1] z8 | 
[V:2] e4e4 | 
[V:3] z8 | 
[V:4] C4B,2A,2- | 
[V:1] z8 | 
[V:2] e4d4 | 
[V:3] z8 | 
[V:4] A,2G,2F,4 | 
[V:1] z8 | 
[V:2] e4g4 | 
[V:3] z8 | 
[V:4] E,8 | 
[V:1] z8 | 
[V:2] f2e4d2 | 
[V:3] A4A2A2 | 
[V:4] z8 | 
[V:1] z8 | 
[V:2] c4B4 | 
[V:3] A4G4 | 
[V:4] z4E,4 | 
[V:1] z8 | 
[V:2] z4c3d | 
[V:3] A8 | 
[V:4] D,2F,4E,D, | 
[V:1] z8 | 
[V:2] efg4f2- | 
[V:3] c4B2A2- | 
[V:4] C,3D,E,2F,2- | 
[V:1] z8 | 
[V:2] f2e4d2 | 
[V:3] A2G2F4 | 
[V:4] F,E,C,2D,4 | 
[V:1] z8 | 
[V:2] e8- | 
[V:3] E8- | 
[V:4] z4G,4- | 
[V:1] z8 | 
[V:2] e8- | 
[V:3] E8- | 
[V:4] G,4E,4 | 
[V:1] z8 ||  
[V:2] e8 ||  
[V:3] E8 ||  
[V:4] E,8 ||  
[V:1]  [K:C] [K:clef=treble][M:2/1]z8 | 
[V:2]  [K:C] [K:clef=treble-8][M:2/1]e3d/e/f2e2- | 
[V:3]  [K:C] [K:clef=treble-8][M:2/1]A8- | 
[V:4]  [K:C] [K:clef=bass][M:2/1]z8 | 
[V:1] z8 | 
[V:2] e2dcdcBA | 
[V:3] A8 | 
[V:4] z8 | 
[V:1] B3A/B/c2B2- | 
[V:2] B4z4 | 
[V:3] G8 | 
[V:4] E,8- | 
[V:1] B2AGAGFE | 
[V:2] B4c4 | 
[V:3] G8 | 
[V:4] E,8 | 
[V:1] F3GA_BA2- | 
[V:2] d6d2- | 
[V:3] A8 | 
[V:4] D,8 | 
[V:1] AGG4^F2 | 
[V:2] d2cBA4 | 
[V:3] A4A4 | 
[V:4] D,8 | 
[V:1] G8 | 
[V:2] z2G4AB | 
[V:3] z8 | 
[V:4] E,8 | 
[V:1] z2G4AB | 
[V:2] c2B2B4 | 
[V:3] z8 | 
[V:4] E,8 | 
[V:1] c2B2B4 | 
[V:2] z2E4FG | 
[V:3] z8 | 
[V:4] z8 | 
[V:1] z2E4FG | 
[V:2] A2G2G4 | 
[V:3] z8 | 
[V:4] z8 | 
[V:1] A2G2G4 | 
[V:2] c3de4 | 
[V:3] z8 | 
[V:4] z2C,4D,E, | 
[V:1] z4z2G2 | 
[V:2] d2e3dB2- | 
[V:3] z8 | 
[V:4] F,2E,2E,4 | 
[V:1] G2ABc2B2- | 
[V:2] B2e6 | 
[V:3] z8 | 
[V:4] z2C,4D,E, | 
[V:1] BAA4^G2 | 
[V:2] c2d2B4 | 
[V:3] z8 | 
[V:4] F,2D,2E,4 | 
[V:1] A8 | 
[V:2] z2c2c2de | 
[V:3] A4A4 | 
[V:4] z2A,,4B,,C, | 
[V:1] A4A4 | 
[V:2] f2e3dd2- | 
[V:3] A4A4 | 
[V:4] D,2C,2D,3C,/B,,/ | 
[V:1] A4A4 | 
[V:2] d2c2d2f2- | 
[V:3] A8- | 
[V:4] A,,4D,4 | 
[V:1] A8 | 
[V:2] f2edc2f2- | 
[V:3] A8 | 
[V:4] z2A,3G,F,E, | 
[V:1] z8 | 
[V:2] fee4d2 | 
[V:3] A8 | 
[V:4] D,2E,2F,2F,2 | 
[V:1] z8 | 
[V:2] e8- | 
[V:3] G6A2 | 
[V:4] E,8 | 
[V:1] G6A2 | 
[V:2] e8 | 
[V:3] B4c4 | 
[V:4] E,4E,4 | 
[V:1] B4c4 | 
[V:2] z4g4- | 
[V:3] G6A2 | 
[V:4] E,4E,4- | 
[V:1] G8 | 
[V:2] g4e4 | 
[V:3] B4c4 | 
[V:4] E,4C,4 | 
[V:1] z2A4Bc | 
[V:2] f4d4- | 
[V:3] A8 | 
[V:4] D,6C,2 | 
[V:1] d6c2 | 
[V:2] d2c2B2A2 | 
[V:3] B8- | 
[V:4] B,,2A,,2G,,4- | 
[V:1] B2A2G4 | 
[V:2] G4G4- | 
[V:3] B8- | 
[V:4] G,,8- | 
[V:1] z2d6 | 
[V:2] G4G4 | 
[V:3] B8 | 
[V:4] G,,4G,,4 | 
[V:1] c6B2- | 
[V:2] E2F4G2- | 
[V:3] A4z4 | 
[V:4] A,,2A,4G,2- | 
[V:1] B4A4- | 
[V:2] GABcdef2- | 
[V:3] d6c2- | 
[V:4] G,2G,2F,4 | 
[V:1] A2G4d2- | 
[V:2] f2g2e2f2 | 
[V:3] c4B4- | 
[V:4] F,2E,4D,2- | 
[V:1] d2c3BAG | 
[V:2] d3ef2f2 | 
[V:3] B2A6 | 
[V:4] D,E,F,G,A,2A,,2- | 
[V:1] FEA4^G2 | 
[V:2] e8 | 
[V:3] c4B4 | 
[V:4] A,,B,,C,D,E,4 | 
[V:1] A4z4 | 
[V:2] z2e2e2f2- | 
[V:3] A8- | 
[V:4] z4A,4 | 
[V:1] A4A2A2- | 
[V:2] f2edc4 | 
[V:3] A8 | 
[V:4] A,2A,4A,2 | 
[V:1] A2A2G2G2 | 
[V:2] f4d2e2 | 
[V:3] z8 | 
[V:4] F,4G,4 | 
[V:1] A2A2c3B | 
[V:2] f2d2e2cd | 
[V:3] z8 | 
[V:4] D,4C,2A,,2- | 
[V:1] A2G2F4 | 
[V:2] efe4d2 | 
[V:3] z4A4 | 
[V:4] A,,B,,C,2D,4 | 
[V:1] E8 | 
[V:2] e4z4 | 
[V:3] A2A4A2 | 
[V:4] A,,8 | 
[V:1] z8 | 
[V:2] e4e2e2- | 
[V:3] G2G2A2A2 | 
[V:4] z8 | 
[V:1] z8 | 
[V:2] e2e2d4 | 
[V:3] c4G4 | 
[V:4] z8 | 
[V:1] z8 | 
[V:2] e4g3f | 
[V:3] E8 | 
[V:4] z4E,3D, | 
[V:1] A4A2A2- | 
[V:2] e2d2c4- | 
[V:3] z8 | 
[V:4] C,2D,2A,,2A,2- | 
[V:1] A2A2G2G2 | 
[V:2] c4B4 | 
[V:3] z8 | 
[V:4] A,2A,2E,2E,2 | 
[V:1] A2A2c3B | 
[V:2] z4A3B | 
[V:3] z4z2c2- | 
[V:4] F,4F,2F,2 | 
[V:1] AGF3GA2- | 
[V:2] c2d4cB | 
[V:3] cBAGF3G | 
[V:4] F,4D,2F,2- | 
[V:1] AGFEDCF2- | 
[V:2] c2d2A4 | 
[V:3] A2A3GFE | 
[V:4] F,E,D,C,D,4- | 
[V:1] FEE4D2 | 
[V:2] A8- | 
[V:3] D2E2F4 | 
[V:4] D,2C,2D,4 | 
[V:1] E8- | 
[V:2] A8 | 
[V:3] E8- | 
[V:4] A,,8 | 
[V:1] E8- | 
[V:2] B8- | 
[V:3] E8- | 
[V:4] z4E,4 | 
[V:1] E8 ||  
[V:2] B8 ||  
[V:3] E8 ||  
[V:4] E,8 ||  
[V:1]  [K:C] [K:clef=treble][M:2/1]E4E2F2- | 
[V:2]  [K:C] [K:clef=treble-8][M:2/1]z8 | 
[V:3]  [K:C] [K:clef=treble-8][M:2/1]A4G2A2- | 
[V:4]  [K:C] [K:clef=bass][M:2/1]z8 | 
[V:1] F2EDE2F2- | 
[V:2] z8 | 
[V:3] A2GFE2D2 | 
[V:4] D,4C,2D,2- | 
[V:1] F2EDC2c2 | 
[V:2] z8 | 
[V:3] F2G2A4 | 
[V:4] D,2C,B,,A,,4 | 
[V:1] B2A2B2A2 | 
[V:2] e8- | 
[V:3] E2c2BAc2- | 
[V:4] z2A,2G,2A,2- | 
[V:1] z4z2c2 | 
[V:2] e8- | 
[V:3] c2BAG2A2 | 
[V:4] A,2G,F,E,2A,,2 | 
[V:1] c2A2B2A2 | 
[V:2] e8- | 
[V:3] z2A2G2A2- | 
[V:4] C4B,2C2- | 
[V:1] E2B4c2 | 
[V:2] e8 | 
[V:3] A2GFE4 | 
[V:4] C2B,A,G,2C,2 | 
[V:1] B2G2B3c | 
[V:2] d8- | 
[V:3] B3cd4 | 
[V:4] G,4z2G,2- | 
[V:1] d4B2G2 | 
[V:2] d8- | 
[V:3] B4z2B2- | 
[V:4] G,A,B,2G,4 | 
[V:1] G4z2G2- | 
[V:2] d8 | 
[V:3] Bcd2B2G2 | 
[V:4] z2G,3A,B,2 | 
[V:1] GAB2G4 | 
[V:2] e8 | 
[V:3] z2G3AB2 | 
[V:4] G,2E,2z2E,2- | 
[V:1] z2G2G3A | 
[V:2] e8- | 
[V:3] G4z2G2- | 
[V:4] E,F,G,2E,2C,2 | 
[V:1] B2G2E2E2- | 
[V:2] e8 | 
[V:3] GAB2G2E2 | 
[V:4] z2E,3F,G,2 | 
[V:1] EFG2E2C2 | 
[V:2] e4e4 | 
[V:3] z2E3FG2 | 
[V:4] C,4z2C,2- | 
[V:1] z2E2E3F | 
[V:2] e8- | 
[V:3] E4z2E2- | 
[V:4] C,D,E,2C,2A,,2 | 
[V:1] G2E2C2G2 | 
[V:2] e8 | 
[V:3] EFG2ECc2- | 
[V:4] z2C,3D,E,2 | 
[V:1] A4B4 | 
[V:2] z8 | 
[V:3] cBA4^G2 | 
[V:4] A,,2C,2B,,4 | 
[V:1] c6A2 | 
[V:2] e8- | 
[V:3] A4z4 | 
[V:4] A,,8 | 
[V:1] A4z2c2- | 
[V:2] e8- | 
[V:3] A8 | 
[V:4] z4A,,4 | 
[V:1] c2BAB2G2 | 
[V:2] e8 | 
[V:3] G8 | 
[V:4] E,8 | 
[V:1] G3ABcd2- | 
[V:2] d8 | 
[V:3] B8- | 
[V:4] G,8- | 
[V:1] dcBAG4 | 
[V:2] d8 | 
[V:3] B8 | 
[V:4] G,8 | 
[V:1] A8 | 
[V:2] f8 | 
[V:3] A6Bc | 
[V:4] D,8- | 
[V:1] A6GF | 
[V:2] f8 | 
[V:3] d4d4 | 
[V:4] D,8 | 
[V:1] G4A4 | 
[V:2] e4f4- | 
[V:3] B4z2d2 | 
[V:4] E,4D,4 | 
[V:1] z4G4 | 
[V:2] f2e2e4- | 
[V:3] c3BB4- | 
[V:4] E,4G,4 | 
[V:1] A4A4 | 
[V:2] e4d4 | 
[V:3] B4A4 | 
[V:4] F,8 | 
[V:1] G4G4- | 
[V:2] e8- | 
[V:3] B2ABc2B2- | 
[V:4] E,8- | 
[V:1] G2A2B4 | 
[V:2] e8 | 
[V:3] BAA4^G2 | 
[V:4] E,8 | 
[V:1] c2A3GF2 | 
[V:2] z8 | 
[V:3] A8 | 
[V:4] A,,3B,,C,2D,2 | 
[V:1] E2c3BAG | 
[V:2] A3Bcde2 | 
[V:3] A4A4 | 
[V:4] A,,4z4 | 
[V:1] A2GFE4 | 
[V:2] f2edc2dc | 
[V:3] A8 | 
[V:4] z8 | 
[V:1] z2D2F2G2 | 
[V:2] d8- | 
[V:3] A4A2B2- | 
[V:4] D,4D,2G,2- | 
[V:1] A4G4 | 
[V:2] d8 | 
[V:3] B2A2B4 | 
[V:4] G,2F,2G,4 | 
[V:1] z2G4A2- | 
[V:2] e8- | 
[V:3] G3AB2c2- | 
[V:4] E,4E,2A,2- | 
[V:1] A2B2c4 | 
[V:2] e8 | 
[V:3] cAd4c2 | 
[V:4] A,2G,2A,4 | 
[V:1] A2B2A2d2- | 
[V:2] f8 | 
[V:3] d8 | 
[V:4] D,8 | 
[V:1] d2cBc2A2 | 
[V:2] e4z4 | 
[V:3] z8 | 
[V:4] A,4A,4 | 
[V:1] B4A4 | 
[V:2] e3ee2e2 | 
[V:3] z8 | 
[V:4] G,4A,4 | 
[V:1] z8 | 
[V:2] e8 | 
[V:3] z8 | 
[V:4] C6B,2 | 
[V:1] A3AA2A2 | 
[V:2] e4d4 | 
[V:3] z8 | 
[V:4] A,2G,2F,4 | 
[V:1] G6G2 | 
[V:2] e4g4 | 
[V:3] z8 | 
[V:4] E,8 | 
[V:1] A2c4B2 | 
[V:2] f2e4d2 | 
[V:3] A4A2A2 | 
[V:4] z8 | 
[V:1] A3G/F/E4 | 
[V:2] c4B4 | 
[V:3] A4G4 | 
[V:4] z4E,4 | 
[V:1] F2A4GF | 
[V:2] z4c3d | 
[V:3] A4A4 | 
[V:4] D,2F,4E,D, | 
[V:1] E3FG2A2- | 
[V:2] efg4f2- | 
[V:3] c4B2A2- | 
[V:4] C,3D,E,2F,2- | 
[V:1] AGE2F4 | 
[V:2] f2e4d2 | 
[V:3] A2G2F4 | 
[V:4] F,E,C,2D,4 | 
[V:1] G6E2 | 
[V:2] e3dB2c2- | 
[V:3] E8- | 
[V:4] z4G,4- | 
[V:1] E8- | 
[V:2] c2B2c4 | 
[V:3] E8- | 
[V:4] G,4E,4 | 
[V:1] E8 |]  
[V:2] B8 |]  
[V:3] E8 |]  
[V:4] E,8 |]  



